skin/frontend/rich/details/images/svg/benefits_transport.svg

<?xml version="1.0" encoding="UTF-8" standalone="no"?>
<!-- Generator: Adobe Illustrator 16.0.0, SVG Export Plug-In . SVG Version: 6.00 Build 0)  -->

<svg
   xmlns:dc="http://purl.org/dc/elements/1.1/"
   xmlns:cc="http://creativecommons.org/ns#"
   xmlns:rdf="http://www.w3.org/1999/02/22-rdf-syntax-ns#"
   xmlns:svg="http://www.w3.org/2000/svg"
   xmlns="http://www.w3.org/2000/svg"
   xmlns:sodipodi="http://sodipodi.sourceforge.net/DTD/sodipodi-0.dtd"
   xmlns:inkscape="http://www.inkscape.org/namespaces/inkscape"
   version="1.1"
   id="Capa_1"
   x="0px"
   y="0px"
   width="612.001px"
   height="612.001px"
   viewBox="0 0 612.001 612.001"
   style="enable-background:new 0 0 612.001 612.001;"
   xml:space="preserve"
   inkscape:version="0.91 r13725"
   sodipodi:docname="benefits_transport.svg"><metadata
     id="metadata4364"><rdf:RDF><cc:Work
         rdf:about=""><dc:format>image/svg+xml</dc:format><dc:type
           rdf:resource="http://purl.org/dc/dcmitype/StillImage" /></cc:Work></rdf:RDF></metadata><defs
     id="defs4362" /><sodipodi:namedview
     pagecolor="#ffffff"
     bordercolor="#666666"
     borderopacity="1"
     objecttolerance="10"
     gridtolerance="10"
     guidetolerance="10"
     inkscape:pageopacity="0"
     inkscape:pageshadow="2"
     inkscape:window-width="1377"
     inkscape:window-height="856"
     id="namedview4360"
     showgrid="false"
     showguides="true"
     inkscape:guide-bbox="true"
     inkscape:zoom="1"
     inkscape:cx="306.00049"
     inkscape:cy="306.00049"
     inkscape:window-x="207"
     inkscape:window-y="176"
     inkscape:window-maximized="0"
     inkscape:current-layer="Capa_1"><sodipodi:guide
       position="572.00002,483.00002"
       orientation="1,0"
       id="guide6103" /><sodipodi:guide
       position="40.000002,435.00002"
       orientation="1,0"
       id="guide6105" /><sodipodi:guide
       position="212.00001,40.000002"
       orientation="0,1"
       id="guide6107" /><sodipodi:guide
       position="251.00001,572.00002"
       orientation="0,1"
       id="guide6109" /></sodipodi:namedview><g
     id="g4326"
     transform="matrix(0.86928114,0,0,0.86928114,36.951111,41.000081)"><path
       d="m 40.121,105.553 c -11.42,-34.613 7.447,-72.068 42.064,-83.49 34.617,-11.422 72.07,7.451 83.49,42.064 l 129.897,393.695 c -12.105,-3.196 -24.979,-3.781 -37.831,-1.431 L 131.984,75.244 C 126.692,59.204 109.341,50.463 93.302,55.755 77.262,61.047 68.521,78.398 73.813,94.437 c 3.069,9.303 -1.984,19.335 -11.288,22.404 -9.303,3.069 -19.334,-1.985 -22.404,-11.288 z m 511.792,308.84 -212.828,70.222 c 7.553,8.575 13.54,18.769 17.342,30.288 0.135,0.411 0.211,0.826 0.34,1.238 L 563.03,448.085 c 9.303,-3.069 14.357,-13.101 11.288,-22.403 -3.07,-9.305 -13.103,-14.359 -22.405,-11.289 z M 339.582,520.465 c 12.059,36.547 -7.794,75.949 -44.34,88.008 -36.547,12.059 -75.949,-7.793 -88.008,-44.34 -12.059,-36.548 7.794,-75.949 44.34,-88.008 36.547,-12.06 75.95,7.793 88.008,44.34 z m -33.087,10.916 c -6.029,-18.273 -25.729,-28.198 -44.004,-22.169 -18.273,6.028 -28.199,25.73 -22.17,44.003 6.029,18.273 25.73,28.199 44.004,22.171 18.273,-6.03 28.199,-25.732 22.17,-44.005 z m 191.632,-384.036 72.256,218.997 c 1.535,4.651 -0.992,9.667 -5.644,11.202 l -227.42,75.035 c -4.651,1.535 -9.667,-0.992 -11.201,-5.644 L 253.862,227.938 c -1.535,-4.652 0.992,-9.667 5.644,-11.202 L 486.925,141.7 c 4.652,-1.533 9.667,0.993 11.202,5.645 z m -30.083,127.214 -77.438,-42.605 -36.864,80.319 24.407,11.233 15.939,-34.747 28.781,87.232 27.545,-9.088 -28.777,-87.219 33.477,18.427 12.93,-23.552 z M 400.472,143.908 354.276,3.896 c -0.981,-2.974 -4.188,-4.59 -7.162,-3.608 l -39.611,13.069 -0.194,0.356 -0.332,-0.182 -20.899,6.896 17.21,52.159 -23.573,7.778 -17.209,-52.159 -20.906,6.898 -0.158,0.344 -0.37,-0.17 -39.354,12.985 c -2.975,0.981 -4.589,4.188 -3.608,7.162 l 46.197,140.013 c 0.981,2.974 4.188,4.59 7.162,3.608 l 145.398,-47.974 c 2.971,-0.982 4.587,-4.189 3.605,-7.163 z"
       id="path4328"
       inkscape:connector-curvature="0" /></g><g
     id="g4330" /><g
     id="g4332" /><g
     id="g4334" /><g
     id="g4336" /><g
     id="g4338" /><g
     id="g4340" /><g
     id="g4342" /><g
     id="g4344" /><g
     id="g4346" /><g
     id="g4348" /><g
     id="g4350" /><g
     id="g4352" /><g
     id="g4354" /><g
     id="g4356" /><g
     id="g4358" /></svg>

<?xml version="1.0" encoding="iso-8859-1"?>
<!-- Generator: Adobe Illustrator 16.0.0, SVG Export Plug-In . SVG Version: 6.00 Build 0)  -->
<!DOCTYPE svg PUBLIC "-//W3C//DTD SVG 1.1//EN" "http://www.w3.org/Graphics/SVG/1.1/DTD/svg11.dtd">
<svg version="1.1" id="Capa_1" xmlns="http://www.w3.org/2000/svg" xmlns:xlink="http://www.w3.org/1999/xlink" x="0px" y="0px"
	 width="612.001px" height="612.001px" viewBox="0 0 612.001 612.001" style="enable-background:new 0 0 612.001 612.001;"
	 xml:space="preserve">
<g>
	<path d="M40.121,105.553c-11.42-34.613,7.447-72.068,42.064-83.49s72.07,7.451,83.49,42.064l129.897,393.695
		c-12.105-3.196-24.979-3.781-37.831-1.431L131.984,75.244c-5.292-16.04-22.643-24.781-38.682-19.489
		c-16.04,5.292-24.781,22.643-19.489,38.682c3.069,9.303-1.984,19.335-11.288,22.404C53.222,119.91,43.191,114.856,40.121,105.553z
		 M551.913,414.393l-212.828,70.222c7.553,8.575,13.54,18.769,17.342,30.288c0.135,0.411,0.211,0.826,0.34,1.238l206.263-68.056
		c9.303-3.069,14.357-13.101,11.288-22.403C571.248,416.377,561.215,411.323,551.913,414.393z M339.582,520.465
		c12.059,36.547-7.794,75.949-44.34,88.008c-36.547,12.059-75.949-7.793-88.008-44.34c-12.059-36.548,7.794-75.949,44.34-88.008
		C288.121,464.065,327.524,483.918,339.582,520.465z M306.495,531.381c-6.029-18.273-25.729-28.198-44.004-22.169
		c-18.273,6.028-28.199,25.73-22.17,44.003c6.029,18.273,25.73,28.199,44.004,22.171
		C302.598,569.356,312.524,549.654,306.495,531.381z M498.127,147.345l72.256,218.997c1.535,4.651-0.992,9.667-5.644,11.202
		l-227.42,75.035c-4.651,1.535-9.667-0.992-11.201-5.644l-72.256-218.997c-1.535-4.652,0.992-9.667,5.644-11.202l227.419-75.036
		C491.577,140.167,496.592,142.693,498.127,147.345z M468.044,274.559l-77.438-42.605l-36.864,80.319l24.407,11.233l15.939-34.747
		l28.781,87.232l27.545-9.088l-28.777-87.219l33.477,18.427L468.044,274.559z M400.472,143.908L354.276,3.896
		c-0.981-2.974-4.188-4.59-7.162-3.608l-39.611,13.069l-0.194,0.356l-0.332-0.182l-20.899,6.896l17.21,52.159l-23.573,7.778
		l-17.209-52.159l-20.906,6.898l-0.158,0.344l-0.37-0.17l-39.354,12.985c-2.975,0.981-4.589,4.188-3.608,7.162l46.197,140.013
		c0.981,2.974,4.188,4.59,7.162,3.608l145.398-47.974C399.838,150.089,401.454,146.882,400.472,143.908z"/>
</g>
<g>
</g>
<g>
</g>
<g>
</g>
<g>
</g>
<g>
</g>
<g>
</g>
<g>
</g>
<g>
</g>
<g>
</g>
<g>
</g>
<g>
</g>
<g>
</g>
<g>
</g>
<g>
</g>
<g>
</g>
</svg>
